public/avatar/shoe/192.svg

<svg xmlns:xlink="http://www.w3.org/1999/xlink" height="38.3" width="36.05" xmlns="http://www.w3.org/2000/svg"><use height="16.2" transform="translate(13.4 12.15)" width="20" xlink:href="#a"/><defs><g id="a" fill-rule="evenodd"><path d="m2.15 1.25 2.45.35q.35.1.3-.15l-.05-.2.05-.05.05-.05Q5 .7 4.6.55q-1.15-2.3-4.65-2.1l-.85.25-.7.25L-3.4 0q.35.1.85 1.1l4.7.15M-1.9 2.9q3.75-.7 6.2.85.25.1-.15.25l-1.75.35-2.55.05-2.35-.6-.05-.25.05-.05v-.05l.6-.55m6.25-.45-1-.65-4.65-.1q-1.45.15-2.4 1l.2.05Q-4.4 3.9-4.7 5.4l.35-.1v.05h.05q.9 1.15 2.7.85 1.8.3 3.75 0l3.6-.25.3-.2.05-.1.05-.4q.05-.95-.45-1.6 1.1.85.8 1.85l.35.3v.05l-.5.55-.2.2-.85.35-3.8.15-6.4-.45q-.45-.15-.4-.75.1-1.95 1-3.2l-.45-.45q-.65-.7-.1-1.4L-4.9.8q-3 1.45-4.1 4.7-.55 1.65-.7 3.4l1.25.9q6.85 1.5 13.95.75 1-.15 1.7-.8 3.4-3.05 0-7.15l-.3-.35-.65-.8-.2.1v.25H5.7l-.65 1.15.2.25-.15-.1-.75-.65M-4.1 1.6v-.5l.1-.45.45-.5-.8 1.05h.15l-.05.25v.05l.15.1.45.1.35-.1h.05l.05-.05.05-.05.05-.05.05-.05.05-.1v-.05l.1-.15h.35-.35l-.1.15v.05l-.05.1-.05.05-.05.05-.05.05-.05.05h-.05l-.35.1-.45-.1-.15-.1v-.05l.05-.25h-.15l.8-1.05-.45.5-.1.45v.5m.7-1.6-.15.15.15-.15m-4.8 11.2h-.05l-.75-.15q1.1.85 2.65 1.2 6.25 1.35 12.65.3 2.5-.4 2.2-1.4l.25-.25-.1-.1q-.15-.35-.55-.3l-.35.2q-7.8 1.75-15 .65L-8 11.2h-.2m-1.35-.65q-1.15-.9-.75-2.7Q-8.4-.65.1-2.7q6.55.85 9 7.25.85 2.3.3 4.65l-.45 1q.8 1.95-2.5 2.65-7.55 1.55-14.9-.6-1.75-.5-1.1-1.7" fill="#371200" transform="translate(10.4 2.7)"/><path d="M2.15 1.25 3.95.6Q2.2-1.2-.45-1l-.45-.3.85-.25q3.5-.2 4.65 2.1.4.15.35.6l-.05.05-.05.05.05.2q.05.25-.3.15l-2.45-.35" fill="#ff8285" transform="translate(10.4 2.7)"/><path d="m-.9-1.3.45.3Q2.2-1.2 3.95.6l-1.8.65-4.7-.15q-.5-1-.85-1.1l1.8-1.05.7-.25" fill="#ffbbbd" transform="translate(10.4 2.7)"/><path d="m-1.9 2.9.05-.15-.05-.1q-.15-.35-.5-.3l-.3.1q-.65.25-.65.95l.05.05h.8v.05l-.05.05.05.25 2.35.6-3.1.45.1.2q4.9 1.05 8.8-.2L5.6 4.8l-.45-.3q.4-.75-.05-1.4l.15.1.45.45q.5.65.45 1.6l-.05.4-.05.1-.3.2-3.6.25q-1.95.3-3.75 0-1.8.3-2.7-.85h-.05V5.3l-.35.1q.3-1.5 1.2-2.65l-.2-.05q.95-.85 2.4-1l4.65.1 1 .65-1.15-.5h-.05Q3.2 3 4.6 3.8l-.1.4v.35l-2.1-.2L4.15 4q.4-.15.15-.25Q1.85 2.2-1.9 2.9" fill="#c47500" transform="translate(10.4 2.7)"/><path d="M-2.5 3.45h-.8l-.05-.05q0-.7.65-.95l.3-.1q.35-.05.5.3l.05.1-.05.15-.6.55m4.9.9 2.1.2V4.2l.1-.4Q3.2 3 3.15 1.95h.05l1.15.5.75.65q.45.65.05 1.4l.45.3.05.05q-3.9 1.25-8.8.2l-.1-.2 3.1-.45 2.55-.05" fill="#ffbe46" transform="translate(10.4 2.7)"/><path d="m5.7 3.65-.45-.45-.2-.25.65-1.15h.35v-.25l.2-.1.65.8.3.35q3.4 4.1 0 7.15-.7.65-1.7.8-7.1.75-13.95-.75l-1.25-.9q.15-1.75.7-3.4Q-7.9 2.25-4.9.8l.05.05q-.55.7.1 1.4l.45.45q-.9 1.25-1 3.2-.05.6.4.75l6.4.45 3.8-.15.85-.35.2-.2.5-.55V5.8l-.35-.3q.3-1-.8-1.85m-13.35.9-.2.2Q-9.6 7.9-6.65 8.1l.05-.05q-.95-1.6-1.05-3.5m16.15 6.6q.3 1-2.2 1.4-6.4 1.05-12.65-.3-1.55-.35-2.65-1.2l.75.15h.05l.05.05-.1-.05.05.15.1-.1q1.7 1.25 3.85.85l-3-.75q7.2 1.1 15-.65-1.55.8-3.3 1.1 2.35.85 4.05-.65M5.5 9l.55-.25q3.45-.6 2-3.8Q7.2 7 5.5 9m-8.65 0h-.25q3.8.7 8 .2v-.05L-3.15 9" fill="#64350b" transform="translate(10.4 2.7)"/><path d="M-7.65 4.55q.1 1.9 1.05 3.5l-.05.05q-2.95-.2-1.2-3.35l.2-.2m-.55 6.65h.2l.75.15 3 .75q-2.15.4-3.85-.85h-.05l-.05-.05m15.95-.5.35-.2q.4-.05.55.3l.1.1-.25.25q-1.7 1.5-4.05.65 1.75-.3 3.3-1.1M-3.15 9l7.75.15v.05q-4.2.5-8-.2h.25M5.5 9q1.7-2 2.55-4.05 1.45 3.2-2 3.8L5.5 9" fill="#a95101" transform="translate(10.4 2.7)"/></g></defs></svg>

<?xml version="1.0" encoding="UTF-8" standalone="no"?>
<svg xmlns:xlink="http://www.w3.org/1999/xlink" height="38.3px" width="36.05px" xmlns="http://www.w3.org/2000/svg">
  <g transform="matrix(1.0, 0.0, 0.0, 1.0, 23.8, 14.85)">
    <use height="16.2" transform="matrix(1.0, 0.0, 0.0, 1.0, -10.4, -2.7)" width="20.0" xlink:href="#shape0"/>
  </g>
  <defs>
    <g id="shape0" transform="matrix(1.0, 0.0, 0.0, 1.0, 10.4, 2.7)">
      <path d="M2.15 1.25 L4.6 1.6 Q4.95 1.7 4.9 1.45 L4.85 1.25 4.9 1.2 4.95 1.15 Q5.0 0.7 4.6 0.55 3.45 -1.75 -0.05 -1.55 L-0.9 -1.3 -1.6 -1.05 -3.4 0.0 Q-3.05 0.1 -2.55 1.1 L2.15 1.25 M-1.9 2.9 Q1.85 2.2 4.3 3.75 4.55 3.85 4.15 4.0 L2.4 4.35 -0.15 4.4 -2.5 3.8 -2.55 3.55 -2.5 3.5 -2.5 3.45 -1.9 2.9 M4.35 2.45 L3.35 1.8 -1.3 1.7 Q-2.75 1.85 -3.7 2.7 L-3.5 2.75 Q-4.4 3.9 -4.7 5.4 L-4.35 5.3 -4.35 5.35 -4.3 5.35 Q-3.4 6.5 -1.6 6.2 0.2 6.5 2.15 6.2 L5.75 5.95 6.05 5.75 6.1 5.65 6.15 5.25 Q6.2 4.3 5.7 3.65 6.8 4.5 6.5 5.5 L6.85 5.8 6.85 5.85 6.35 6.4 6.15 6.6 5.3 6.95 1.5 7.1 -4.9 6.65 Q-5.35 6.5 -5.3 5.9 -5.2 3.95 -4.3 2.7 L-4.75 2.25 Q-5.4 1.55 -4.85 0.85 L-4.9 0.8 Q-7.9 2.25 -9.0 5.5 -9.55 7.15 -9.7 8.9 L-8.45 9.8 Q-1.6 11.3 5.5 10.55 6.5 10.4 7.2 9.75 10.6 6.7 7.2 2.6 L6.9 2.25 6.25 1.45 6.05 1.55 6.05 1.8 5.7 1.8 5.05 2.95 5.25 3.2 5.1 3.1 4.35 2.45 M-4.1 1.6 L-4.1 1.1 -4.0 0.65 -3.55 0.15 -4.35 1.2 -4.2 1.2 -4.25 1.45 -4.25 1.5 -4.1 1.6 -3.65 1.7 -3.3 1.6 -3.25 1.6 -3.2 1.55 -3.15 1.5 -3.1 1.45 -3.05 1.4 -3.0 1.3 -3.0 1.25 -2.9 1.1 -2.55 1.1 -2.9 1.1 -3.0 1.25 -3.0 1.3 -3.05 1.4 -3.1 1.45 -3.15 1.5 -3.2 1.55 -3.25 1.6 -3.3 1.6 -3.65 1.7 -4.1 1.6 -4.25 1.5 -4.25 1.45 -4.2 1.2 -4.35 1.2 -3.55 0.15 -4.0 0.65 -4.1 1.1 -4.1 1.6 M-3.4 0.0 L-3.55 0.15 -3.4 0.0 M-8.2 11.2 L-8.25 11.2 -9.0 11.05 Q-7.9 11.9 -6.35 12.25 -0.1 13.6 6.3 12.55 8.8 12.15 8.5 11.15 L8.75 10.9 8.65 10.8 Q8.5 10.45 8.1 10.5 L7.75 10.7 Q-0.05 12.45 -7.25 11.35 L-8.0 11.2 -8.2 11.2 M-9.55 10.55 Q-10.7 9.65 -10.3 7.85 -8.4 -0.65 0.1 -2.7 6.65 -1.85 9.1 4.55 9.95 6.85 9.4 9.2 L8.95 10.2 Q9.75 12.15 6.45 12.85 -1.1 14.4 -8.45 12.25 -10.2 11.75 -9.55 10.55" fill="#371200" fill-rule="evenodd" stroke="none"/>
      <path d="M2.15 1.25 L3.95 0.6 Q2.2 -1.2 -0.45 -1.0 L-0.9 -1.3 -0.05 -1.55 Q3.45 -1.75 4.6 0.55 5.0 0.7 4.95 1.15 L4.9 1.2 4.85 1.25 4.9 1.45 Q4.95 1.7 4.6 1.6 L2.15 1.25" fill="#ff8285" fill-rule="evenodd" stroke="none"/>
      <path d="M-0.9 -1.3 L-0.45 -1.0 Q2.2 -1.2 3.95 0.6 L2.15 1.25 -2.55 1.1 Q-3.05 0.1 -3.4 0.0 L-1.6 -1.05 -0.9 -1.3" fill="#ffbbbd" fill-rule="evenodd" stroke="none"/>
      <path d="M-1.9 2.9 L-1.85 2.75 -1.9 2.65 Q-2.05 2.3 -2.4 2.35 L-2.7 2.45 Q-3.35 2.7 -3.35 3.4 L-3.3 3.45 -2.5 3.45 -2.5 3.5 -2.55 3.55 -2.5 3.8 -0.15 4.4 -3.25 4.85 -3.15 5.05 Q1.75 6.1 5.65 4.85 L5.6 4.8 5.15 4.5 Q5.55 3.75 5.1 3.1 L5.25 3.2 5.7 3.65 Q6.2 4.3 6.15 5.25 L6.1 5.65 6.05 5.75 5.75 5.95 2.15 6.2 Q0.2 6.5 -1.6 6.2 -3.4 6.5 -4.3 5.35 L-4.35 5.35 -4.35 5.3 -4.7 5.4 Q-4.4 3.9 -3.5 2.75 L-3.7 2.7 Q-2.75 1.85 -1.3 1.7 L3.35 1.8 4.35 2.45 3.2 1.95 3.15 1.95 Q3.2 3.0 4.6 3.8 L4.5 4.2 4.5 4.55 2.4 4.35 4.15 4.0 Q4.55 3.85 4.3 3.75 1.85 2.2 -1.9 2.9" fill="#c47500" fill-rule="evenodd" stroke="none"/>
      <path d="M-2.5 3.45 L-3.3 3.45 -3.35 3.4 Q-3.35 2.7 -2.7 2.45 L-2.4 2.35 Q-2.05 2.3 -1.9 2.65 L-1.85 2.75 -1.9 2.9 -2.5 3.45 M2.4 4.35 L4.5 4.55 4.5 4.2 4.6 3.8 Q3.2 3.0 3.15 1.95 L3.2 1.95 4.35 2.45 5.1 3.1 Q5.55 3.75 5.15 4.5 L5.6 4.8 5.65 4.85 Q1.75 6.1 -3.15 5.05 L-3.25 4.85 -0.15 4.4 2.4 4.35" fill="#ffbe46" fill-rule="evenodd" stroke="none"/>
      <path d="M5.7 3.65 L5.25 3.2 5.05 2.95 5.7 1.8 6.05 1.8 6.05 1.55 6.25 1.45 6.9 2.25 7.2 2.6 Q10.6 6.7 7.2 9.75 6.5 10.4 5.5 10.55 -1.6 11.3 -8.45 9.8 L-9.7 8.9 Q-9.55 7.15 -9.0 5.5 -7.9 2.25 -4.9 0.8 L-4.85 0.85 Q-5.4 1.55 -4.75 2.25 L-4.3 2.7 Q-5.2 3.95 -5.3 5.9 -5.35 6.5 -4.9 6.65 L1.5 7.1 5.3 6.95 6.15 6.6 6.35 6.4 6.85 5.85 6.85 5.8 6.5 5.5 Q6.8 4.5 5.7 3.65 M-7.65 4.55 L-7.85 4.75 Q-9.6 7.9 -6.65 8.1 L-6.6 8.05 Q-7.55 6.45 -7.65 4.55 M8.5 11.15 Q8.8 12.15 6.3 12.55 -0.1 13.6 -6.35 12.25 -7.9 11.9 -9.0 11.05 L-8.25 11.2 -8.2 11.2 -8.15 11.25 -8.25 11.2 -8.2 11.35 -8.1 11.25 Q-6.4 12.5 -4.25 12.1 L-7.25 11.35 Q-0.05 12.45 7.75 10.7 6.2 11.5 4.45 11.8 6.8 12.65 8.5 11.15 M5.5 9.0 L6.05 8.75 Q9.5 8.15 8.05 4.95 7.2 7.0 5.5 9.0 M-3.15 9.0 L-3.4 9.0 Q0.4 9.7 4.6 9.2 L4.6 9.15 -3.15 9.0" fill="#64350b" fill-rule="evenodd" stroke="none"/>
      <path d="M-7.65 4.55 Q-7.55 6.45 -6.6 8.05 L-6.65 8.1 Q-9.6 7.9 -7.85 4.75 L-7.65 4.55 M-8.2 11.2 L-8.0 11.2 -7.25 11.35 -4.25 12.1 Q-6.4 12.5 -8.1 11.25 L-8.15 11.25 -8.2 11.2 M7.75 10.7 L8.1 10.5 Q8.5 10.45 8.65 10.8 L8.75 10.9 8.5 11.15 Q6.8 12.65 4.45 11.8 6.2 11.5 7.75 10.7 M-3.15 9.0 L4.6 9.15 4.6 9.2 Q0.4 9.7 -3.4 9.0 L-3.15 9.0 M5.5 9.0 Q7.2 7.0 8.05 4.95 9.5 8.15 6.05 8.75 L5.5 9.0" fill="#a95101" fill-rule="evenodd" stroke="none"/>
    </g>
  </defs>
</svg>
